X: 38686
T: Strathlorne March
R: polka
M: 2/4
K: Dmajor
c>d|"A"e2>c2 A>ce>d|c<eA>c e2 f>g|"D"a2 d>f "A" e>cA>c|"G"B<GB>c d2 c>d|
"A"e2>c2 A>ce>d|c<eA>c e2 f>g|"D"a>fd>f "E7" e>d c<B|"A"A2"D" A2 "A"A2:|
c>d|"A"e2 A>c a2 g>f|e<ac>d e2 f>g|"D"a2 d>f "A" e>cA>c|"G"B<GB>c d2 c>d|
"A"e2 A>c a2 g>f|e<ac>d e2 f>g|"D"a>fd>f "E7" e>d c<B|"A"A2"D" A2 "A"A2:|

